icons/svg/money/money_transfer.svg

<?xml version="1.0" encoding="UTF-8" standalone="no"?>
<!-- Created with Inkscape (http://www.inkscape.org/) -->

<svg
   xmlns:dc="http://purl.org/dc/elements/1.1/"
   xmlns:cc="http://creativecommons.org/ns#"
   xmlns:rdf="http://www.w3.org/1999/02/22-rdf-syntax-ns#"
   xmlns:svg="http://www.w3.org/2000/svg"
   xmlns="http://www.w3.org/2000/svg"
   xmlns:sodipodi="http://sodipodi.sourceforge.net/DTD/sodipodi-0.dtd"
   xmlns:inkscape="http://www.inkscape.org/namespaces/inkscape"
   version="1.0"
   width="580"
   height="580"
   id="svg2"
   sodipodi:version="0.32"
   inkscape:version="0.91 r13725"
   sodipodi:docname="money_transfer.svg"
   inkscape:output_extension="org.inkscape.output.svg.inkscape">
  <metadata
     id="metadata2975">
    <rdf:RDF>
      <cc:Work
         rdf:about="">
        <dc:format>image/svg+xml</dc:format>
        <dc:type
           rdf:resource="http://purl.org/dc/dcmitype/StillImage" />
        <cc:license
           rdf:resource="http://web.resource.org/cc/PublicDomain" />
        <dc:language>en</dc:language>
        <dc:title></dc:title>
      </cc:Work>
    </rdf:RDF>
  </metadata>
  <sodipodi:namedview
     inkscape:window-height="1006"
     inkscape:window-width="1920"
     inkscape:pageshadow="2"
     inkscape:pageopacity="0.0"
     guidetolerance="10.0"
     gridtolerance="10.0"
     objecttolerance="10.0"
     borderopacity="1.0"
     bordercolor="#666666"
     pagecolor="#ffffff"
     id="base"
     inkscape:zoom="0.65172416"
     inkscape:cx="225.23834"
     inkscape:cy="219.07998"
     inkscape:window-x="1920"
     inkscape:window-y="0"
     inkscape:current-layer="svg2"
     showgrid="false"
     inkscape:window-maximized="1" />
  <defs
     id="defs4">
    <inkscape:perspective
       sodipodi:type="inkscape:persp3d"
       inkscape:vp_x="0 : 290 : 1"
       inkscape:vp_y="0 : 1000 : 0"
       inkscape:vp_z="580 : 290 : 1"
       inkscape:persp3d-origin="290 : 193.33333 : 1"
       id="perspective2441" />
  </defs>
  <g
     id="g1327">
    <path
       d="M 66.275,1.768 C 24.94,1.768 1.704,23.139 1.704,66.804 L 1.704,516.927 C 1.704,557.771 22.599,579.156 63.896,579.156 L 515.92,579.156 C 557.227,579.156 578.149,558.841 578.149,516.927 L 578.149,66.804 C 578.149,24.203 557.227,1.768 514.628,1.768 C 514.624,1.768 66.133,1.625 66.275,1.768 z "
       style="fill:#111;stroke:#eee;stroke-width:3.40799999"
       id="path1329" />
  </g>
  <g
     id="g4372"
     transform="translate(-130.0802,122.26983)" />
  <g
     id="g5004"
     transform="matrix(0.88441573,0,0,0.66515747,-112.73743,175.29463)" />
  <path
     inkscape:connector-curvature="0"
     id="path4152"
     style="font-style:normal;font-variant:normal;font-weight:bold;font-stretch:normal;font-size:medium;line-height:125%;font-family:Roboto;-inkscape-font-specification:'Roboto Bold';letter-spacing:0px;word-spacing:0px;fill:#ffffff;fill-opacity:1;stroke:none;stroke-width:1px;stroke-linecap:butt;stroke-linejoin:miter;stroke-opacity:1"
     d="m 338.74921,414.52847 q 0,-14.93936 -10.96561,-23.68436 -10.7272,-8.92718 -36.71087,-16.39688 -25.98369,-7.46965 -44.8159,-14.75717 -18.83221,-7.46969 -32.42002,-16.94344 -13.3494,-9.65591 -20.97763,-22.59121 -7.38987,-12.9353 -7.38987,-30.78969 0,-30.78968 25.74531,-50.4659 25.74528,-19.67625 68.41576,-22.95562 l 0,-38.98812 38.14119,0 0,39.53469 q 42.19369,4.55468 66.03193,26.96372 23.83824,22.22688 23.83824,57.75342 l -68.89253,0 q 0,-21.8625 -11.91912,-32.61155 -11.68074,-10.93125 -31.46648,-10.93125 -19.54734,0 -30.27457,8.56281 -10.72721,8.38063 -10.72721,23.31999 0,13.84624 10.48884,22.22688 10.48879,8.38061 38.85632,17.12559 28.60588,8.74501 46.96135,16.57907 18.35546,7.65187 30.98972,17.48998 12.63429,9.65593 19.30897,22.22687 6.67471,12.38875 6.67471,28.96781 0,30.97185 -25.26853,50.28371 -25.26854,19.31189 -69.60768,22.77344 l 0,36.25528 -37.90282,0 0,-36.0731 Q 225.9943,483.3953 199.0571,460.98627 172.35826,438.39502 172.35826,401.04662 l 68.89252,0 q 0,21.6803 13.34942,33.34028 13.58782,11.47781 38.85635,11.47781 20.97766,0 33.13516,-8.38062 12.1575,-8.56282 12.1575,-22.95562 z" />
  <path
     style="fill:#ffffff;fill-opacity:1;stroke:#ffffff;stroke-width:10.03930569;stroke-linecap:round;stroke-linejoin:round;stroke-miterlimit:4;stroke-dasharray:none;stroke-opacity:1"
     d="m 174.54304,117.5313 c -22.71151,-25.845829 -45.4093,-51.701829 -68.1165,-77.550819 -24.13081,27.35091 -48.278732,54.68919 -72.39072,82.054129 13.49488,0 26.989745,0 40.484624,0 0,30.67589 0,61.35179 0,92.0277 21.029926,0 42.059876,0 63.089786,0 0.39111,-31.2188 0.72225,-62.43831 1.05352,-93.65775 12.80256,0 25.60513,0 38.4077,0 -0.8428,-0.95775 -1.68561,-1.91551 -2.52841,-2.87326 z"
     id="path8535"
     inkscape:connector-curvature="0" />
  <path
     style="fill:#ffffff;fill-opacity:1;stroke:#ffffff;stroke-width:10.03930569;stroke-linecap:round;stroke-linejoin:round;stroke-miterlimit:4;stroke-dasharray:none;stroke-opacity:1"
     d="m 405.45696,136.51175 c 22.71151,25.84583 45.4093,51.70183 68.1165,77.55082 24.13081,-27.35091 48.27873,-54.68919 72.39072,-82.05413 -13.49488,0 -26.98975,0 -40.48463,0 0,-30.67589 0,-61.351787 0,-92.027697 -21.02992,0 -42.05987,0 -63.08978,0 -0.39111,31.2188 -0.72225,62.438307 -1.05352,93.657747 -12.80256,0 -25.60513,0 -38.4077,0 0.8428,0.95775 1.68561,1.91551 2.52841,2.87326 z"
     id="path8535-8"
     inkscape:connector-curvature="0" />
</svg>

<svg width="580" height="580" viewBox="0 0 580 580" fill="none" xmlns="http://www.w3.org/2000/svg">
<g clip-path="url(#clip0)">
<path d="M66.2751 1.76799C24.9401 1.76799 1.7041 23.139 1.7041 66.804V516.927C1.7041 557.771 22.5991 579.156 63.8961 579.156H515.92C557.227 579.156 578.149 558.841 578.149 516.927V66.804C578.149 24.203 557.227 1.76799 514.628 1.76799C514.624 1.76799 66.1331 1.62499 66.2751 1.76799Z" fill="#111111" stroke="#EEEEEE" stroke-width="3.408"/>
<path d="M338.749 414.528C338.749 404.569 335.094 396.674 327.784 390.844C320.632 384.893 308.395 379.427 291.073 374.447C273.75 369.467 258.812 364.548 246.257 359.69C233.702 354.71 222.895 349.062 213.837 342.747C204.937 336.309 197.945 328.779 192.859 320.155C187.933 311.532 185.469 301.269 185.469 289.366C185.469 268.839 194.051 252.017 211.215 238.9C228.378 225.782 251.184 218.13 279.631 215.944V176.956H317.772V216.491C345.901 219.527 367.911 228.515 383.804 243.454C399.696 258.272 407.642 277.524 407.642 301.208H338.749C338.749 286.633 334.776 275.762 326.83 268.596C319.043 261.309 308.554 257.665 295.364 257.665C282.332 257.665 272.241 260.519 265.089 266.228C257.938 271.815 254.362 279.588 254.362 289.548C254.362 298.779 257.858 306.188 264.851 311.775C271.843 317.362 284.795 323.07 303.707 328.9C322.778 334.73 338.431 340.257 350.668 345.479C362.905 350.581 373.235 356.411 381.658 362.969C390.081 369.407 396.517 376.816 400.967 385.196C405.417 393.455 407.642 403.111 407.642 414.164C407.642 434.812 399.219 451.573 382.373 464.448C365.528 477.322 342.325 484.914 312.766 487.221V523.477H274.863V487.403C242.284 484.731 217.015 475.926 199.057 460.986C181.258 445.925 172.358 425.946 172.358 401.047H241.251C241.251 415.5 245.701 426.614 254.6 434.387C263.659 442.039 276.611 445.865 293.457 445.865C307.442 445.865 318.487 443.071 326.592 437.484C334.697 431.776 338.749 424.124 338.749 414.528V414.528Z" fill="white"/>
<path d="M174.543 117.531C151.831 91.6855 129.134 65.8295 106.426 39.9805C82.2956 67.3314 58.1476 94.6697 34.0356 122.035C47.5305 122.035 61.0254 122.035 74.5203 122.035C74.5203 152.71 74.5203 183.386 74.5203 214.062C95.5502 214.062 116.58 214.062 137.61 214.062C138.001 182.844 138.332 151.624 138.664 120.405C151.466 120.405 164.269 120.405 177.071 120.405C176.228 119.447 175.386 118.489 174.543 117.531V117.531Z" fill="white" stroke="white" stroke-width="10.0393" stroke-linecap="round" stroke-linejoin="round"/>
<path d="M405.457 136.512C428.169 162.358 450.866 188.214 473.574 214.063C497.704 186.712 521.852 159.373 545.964 132.008C532.469 132.008 518.975 132.008 505.48 132.008C505.48 101.333 505.48 70.6567 505.48 39.9807C484.45 39.9807 463.42 39.9807 442.39 39.9807C441.999 71.1995 441.668 102.419 441.336 133.638C428.534 133.638 415.731 133.638 402.929 133.638C403.772 134.596 404.614 135.554 405.457 136.512V136.512Z" fill="white" stroke="white" stroke-width="10.0393" stroke-linecap="round" stroke-linejoin="round"/>
</g>
<defs>
<clipPath id="clip0">
<path d="M0 0H580V580H0V0Z" fill="white"/>
</clipPath>
</defs>
</svg>
